resources/img/btn_link.svg

<svg fill="none" height="51" viewBox="0 0 52 51" width="52" xmlns="http://www.w3.org/2000/svg"><rect fill="#879fbc" height="51" rx="10" width="51" x=".5"/><g fill="#fff"><path d="m24.175 33.1632-1.7323 1.7472c-.4081.4155-.8666.7162-1.3625.9207-.7424.3054-1.5679.3875-2.3505.2391-.7863-.1485-1.5259-.5155-2.1431-1.1216-.41-.4099-.7097-.8693-.9171-1.3624-.3053-.7443-.3885-1.5689-.24-2.3552.1485-.7844.5164-1.5249 1.1253-2.1366l4.3639-4.419c.408-.409.8675-.7144 1.3634-.9152.7443-.3081 1.567-.3922 2.3523-.2437.7863.1494 1.5259.5173 2.1404 1.1271.3419.3334.6042.7069.8013 1.1057.0177.0038.0327.0093.0467.0121.4566.0897.9441.042 1.3718-.1335.2988-.1195.5677-.297.8003-.5323l1.7696-1.7687c-.3969-.7209-.9021-1.3961-1.5129-2.0003-.8609-.846-1.8611-1.4904-2.9229-1.9125-1.5969-.635-3.331-.7863-4.9933-.4567-1.6575.3315-3.2535 1.1515-4.5263 2.4439l-4.3667 4.4154c-.8516.8591-1.4941 1.8574-1.9172 2.9229-.634 1.5959-.7853 3.3301-.4557 4.9904.3306 1.6604 1.1515 3.2554 2.4448 4.5292.8573.8507 1.8593 1.4932 2.922 1.9153 1.596.6378 3.3302.7854 4.9896.4557 1.6603-.3296 3.2554-1.1523 4.5301-2.442l4.3666-4.4161c.0234-.0233.0421-.0467.0645-.07-.0327.0046-.0645.014-.0971.0187-1.9901.3856-4.0343.1922-5.915-.5576z"/><path d="m41.1138 17.3195c-.3185-1.6623-1.1328-3.2619-2.4159-4.5441-.8526-.8535-1.8509-1.5035-2.9108-1.9312-1.5931-.6463-3.3254-.805-4.9886-.4838-1.6622.3203-3.2619 1.1337-4.5432 2.4149l-4.3918 4.3928c-.0317.0327-.0644.0691-.0999.1028.0131 0 .0252-.0038.0373-.0038 2.0031-.4015 4.0688-.2148 5.9663.5435.0094.001.0188.0085.0299.0113l1.7538-1.751c.409-.4099.8713-.7097 1.3672-.9114.7433-.3035 1.566-.3773 2.3532-.227.7835.1523 1.5204.5239 2.1339 1.1384.409.409.7078.8694.9086 1.3662.3035.7452.38 1.5689.2288 2.3542-.1541.7835-.5258 1.5213-1.1374 2.1339l-4.3928 4.39c-.4081.4099-.8713.7097-1.3672.9124-.7434.3016-1.5688.3763-2.3523.2259-.7863-.154-1.5212-.5248-2.1348-1.1383-.3297-.3316-.5902-.6967-.7835-1.0898-.0205-.0047-.042-.0112-.0597-.0131-.4586-.0868-.9479-.0392-1.3718.1382-.2989.1242-.566.3035-.7966.537l-1.7528 1.7724c.3885.7013.8787 1.3578 1.4699 1.9489.8554.8563 1.8527 1.5044 2.9126 1.9349 1.5913.6453 3.3263.8041 4.9886.4819 1.6604-.3203 3.2591-1.1318 4.5441-2.4168l4.3891-4.39c.8554-.8545 1.5044-1.8518 1.9321-2.9117.6462-1.5921.8068-3.3254.4837-4.9876z"/></g></svg>

<svg width="52" height="51" viewBox="0 0 52 51" fill="none" xmlns="http://www.w3.org/2000/svg">
<rect x="0.5" width="51" height="51" rx="10" fill="#879FBC"/>
<path d="M24.175 33.1632L22.4427 34.9104C22.0346 35.3259 21.5761 35.6266 21.0802 35.8311C20.3378 36.1365 19.5123 36.2186 18.7297 36.0702C17.9434 35.9217 17.2038 35.5547 16.5866 34.9486C16.1766 34.5387 15.8769 34.0793 15.6695 33.5862C15.3642 32.8419 15.281 32.0173 15.4295 31.231C15.578 30.4466 15.9459 29.7061 16.5548 29.0944L20.9187 24.6754C21.3267 24.2664 21.7862 23.961 22.2821 23.7602C23.0264 23.4521 23.8491 23.368 24.6344 23.5165C25.4207 23.6659 26.1603 24.0338 26.7748 24.6436C27.1167 24.977 27.379 25.3505 27.5761 25.7493C27.5938 25.7531 27.6088 25.7586 27.6228 25.7614C28.0794 25.8511 28.5669 25.8034 28.9946 25.6279C29.2934 25.5084 29.5623 25.3309 29.7949 25.0956L31.5645 23.3269C31.1676 22.606 30.6624 21.9308 30.0516 21.3266C29.1907 20.4806 28.1905 19.8362 27.1287 19.4141C25.5318 18.7791 23.7977 18.6278 22.1354 18.9574C20.4779 19.2889 18.8819 20.1089 17.6091 21.4013L13.2424 25.8167C12.3908 26.6758 11.7483 27.6741 11.3252 28.7396C10.6912 30.3355 10.5399 32.0697 10.8695 33.73C11.2001 35.3904 12.021 36.9854 13.3143 38.2592C14.1716 39.1099 15.1736 39.7524 16.2363 40.1745C17.8323 40.8123 19.5665 40.9599 21.2259 40.6302C22.8862 40.3006 24.4813 39.4779 25.756 38.1882L30.1226 33.7721C30.146 33.7488 30.1647 33.7254 30.1871 33.7021C30.1544 33.7067 30.1226 33.7161 30.09 33.7208C28.0999 34.1064 26.0557 33.913 24.175 33.1632Z" fill="white"/>
<path d="M41.1138 17.3195C40.7953 15.6572 39.981 14.0576 38.6979 12.7754C37.8453 11.9219 36.847 11.2719 35.7871 10.8442C34.194 10.1979 32.4617 10.0392 30.7985 10.3604C29.1363 10.6807 27.5366 11.4941 26.2553 12.7753L21.8635 17.1681C21.8318 17.2008 21.7991 17.2372 21.7636 17.2709C21.7767 17.2709 21.7888 17.2671 21.8009 17.2671C23.804 16.8656 25.8697 17.0523 27.7672 17.8106C27.7766 17.8116 27.786 17.8191 27.7971 17.8219L29.5509 16.0709C29.9599 15.661 30.4222 15.3612 30.9181 15.1595C31.6614 14.856 32.4841 14.7822 33.2713 14.9325C34.0548 15.0848 34.7917 15.4564 35.4052 16.0709C35.8142 16.4799 36.113 16.9403 36.3138 17.4371C36.6173 18.1823 36.6938 19.006 36.5426 19.7913C36.3885 20.5748 36.0168 21.3126 35.4052 21.9252L31.0124 26.3152C30.6043 26.7251 30.1411 27.0249 29.6452 27.2276C28.9018 27.5292 28.0764 27.6039 27.2929 27.4535C26.5066 27.2995 25.7717 26.9287 25.1581 26.3152C24.8284 25.9836 24.5679 25.6185 24.3746 25.2254C24.3541 25.2207 24.3326 25.2142 24.3149 25.2123C23.8563 25.1255 23.367 25.1731 22.9431 25.3505C22.6442 25.4747 22.3771 25.654 22.1465 25.8875L20.3937 27.6599C20.7822 28.3612 21.2724 29.0177 21.8636 29.6088C22.719 30.4651 23.7163 31.1132 24.7762 31.5437C26.3675 32.189 28.1025 32.3478 29.7648 32.0256C31.4252 31.7053 33.0239 30.8938 34.3089 29.6088L38.698 25.2188C39.5534 24.3643 40.2024 23.367 40.6301 22.3071C41.2763 20.715 41.4369 18.9817 41.1138 17.3195Z" fill="white"/>
</svg>
